X:1
T:Isti sunt viri sancti - Palestrina
T:#
%%score [ 1 2 3 4 ]
L:1/8
Q:1/4=200
M:none
K:C
V:1 treble nm="Soprano"
V:2 treble nm="Alto"
V:3 treble-8 nm="Tenor"
V:4 bass nm="Bass"
V:1
"^Isti sunt viri sancti""^G. P. da Palestrina\n(1526-94)" z16 | z16 | z16 | G16 | G8 G8 | %5
w: |||I-|sti sunt|
 c8 B4 (e4- | e2 d2 c2 B2 c4 B4 | A8) G4 c4- |[M:4/2] (c4 B2 A2 B2 c2 d4- | d4 c8 B4) | c8 z8 | %11
w: vi- ri san\-||* cti, san\-|||cti,|
 z8 c8 | d4 f8 e4 | d4 d4 c8 | z4 d4 e4 f4 | g8 f4 d4 | e8 d4 c4- | c2 B2 G4 A8 | (B8 c6 B2 | %19
w: quos|e- le- git|Do- mi- nus|in cha- ri-|ta- te non|fi\- * *|* * cta, non|fi\- * *|
 A4 G4 A8) | D8 z8 | z4 G4 A4 c4- | c4 B4 A4 A4 | G8 z4 G4 | A4 B4 c8 | B4 G4 (A8 | %26
w: |cta,|quos e- le\-|* git Do- mi-|nus in|cha- ri- ta-|te non fi\-|
 G6 A2 B2 G2 A4- | A2 G2 G8 ^F4) | G8 z8 | z8 z4 G4 | c8 d8 | e8 (d4 e4- | e4 d2 c2 d4) d4- | %33
w: ||cta,|et|de- dit|il- lis *|* * * * glo\-|
 d2 d2 d4 e4 g4 | (f4 e4 d8 | c6 B2 A8) | G16 | z16 | z8 G8 | c8 d8 | e8 c8 | z4 d6 d2 d4 | %42
w: * ri- am sem- pi-|ter\- * *||nam,||et|de- dit|il- lis|glo- ri- an|
 e4 g4 (f4 e4) | d4 (g6 f2) e4 | (d4 c8 B4) | c16 | z16 | z8 z4 d4 | d4 d4 e8 | d4 g4 e4 f4 | %50
w: sem- pi- ter\- *|nam, sem\- * pi-|ter\- * *|nam:||Quo-|rum do- ctri-|na ful- get Ec-|
 (g2 f2 e2 d2 c4) d4 | e4 (f6 e2 d2 c2 | B6 AG) A4 A4 | (B4 G2 A2 B2 c2 d4- | d2 c2 c8) B4 | %55
w: cle\- * * * * si-|a, ful\- * * *|* * * get Ec-|cle\- * * * * *|* * * si-|
 (e6 d2 c4 B2 A2 | G8) z8 | z4 d4 d4 d4 | e8 (d6 c2 | B8) z4 g4 | e4 f4 (g2 f2 e2 d2) | %61
w: a, * * * *||quo- rum do-|ctri- na *|* ful-|get Ec- cle\- * * *|
 (c4 d4 e4 d2 c2 | B4 c6 d2 e4- | e4) d4 e8- | e8 z8 | z4 G4 d8- | d4 c4 (B8- | B8 A4 B4-) | %68
w: ||* si- a,||ut so\-|* le lu\-||
 (B2 A2 A8 G4) | A8 z8 | c8 g8- | g4 f4 (e4 d4 | e4 A2 B2 c2 d2 e2 c2 | d2 e2 d6 B2 c4- | %74
w: |na,|ut so\-|* le lu\- *|||
 c2 B2 B4 A8) | G8 z4 G4 | d12 c4 | (B6 AG B4 A4- | A2 G2 G8 ^F4) |[Q:1/4=195] G16- | %80
w: |na, ut|so- le|lu\- * * * *||na.|
[Q:1/4=188] G16 |[Q:1/4=180] G16 |[Q:1/4=173] G16 |[Q:1/4=170] !fermata!G16 |] %84
w: ||||
V:2
 D16 | D8 D8 | (G6 F2 E4) D4 | E8 D4 (C4- | C2 D2 E2 D2 E2 F2 G4- | G4) ^F4 G8 | z4 C4 A,4 B,4 | %7
w: I-|sti sunt|vi\- * * ri|san- cti, san\-||* * cti,|i- sti sunt|
 C4 D4 (E4 C4) |[M:4/2] (G6 F2 E4 D4) | G16 | z4 G8 F4 | E4 A8 G4 | (F4 D4) G8 | z4 G4 A4 c4- | %14
w: vi- ri san\- *||cti,|i- sti|sunt vi- ri|san\- * cti,|quos e- le\-|
 c4 B4 A4 A4 | G4 G4 A4 B4 | c8 B4 A4- | A4 (G6 ^FE F4) | G8 z4 G4 | A4 B4 c8- | c4 B4 A4 (G4- | %21
w: * git Do- mi-|nus in cha- ri-|ta- te non|* fi\- * * *|cta, in|cha- ri- ta\-|* te non fi\-|
 G2 F2 E2 D2 E6 C2) | (D4 E8 D4 | E8) D8 | z4 D4 (E6 F2 | G4) E4 D8 | B,8 z4 A,4 | B,4 C4 D8 | %28
w: ||* cta,|in cha\- *|* ri- ta-|te, in|cha- ri- ta-|
 (B,6 A,B, C4) D4 | (E4 G6 F2 E2 D2 | C8) G8 | z4 C4 G8 | A8 B8 | G4 G6 G2 G4 | %34
w: te * * * non|fi\- * * * *|* cta,|et de-|dit il-|lis glo- ri- am|
 A4 c4 (B2 A2 G2 F2 | E2 F2 G8 F4) | G4 C8 B,4 | C8 G,8 | z16 | z8 G,8 | G8 A8 | B8 G4 G4- | %42
w: sem- pi- ter\- * * *||nam, sem- pi-|ter- nam,||et|de- dit|il- lis glo\-|
 G2 G2 G4 (A4 c4-) | c4 B4 (c6 B2 | A2 G2 A4 G8) | E8 A8- | A4 A4 (G4 F4- | F2 E2 E2 DC) D8 | %48
w: * ri- am sem\- *|* pi- ter\- *||nam, sem\-|* pi- ter\- *|* * * * * nam:|
 z8 G8 | G4 G4 A8 | G4 c4 A4 B4 | (c2 B2 A2 G2 F2 G2 A4- | A2 G2 G8) ^F4 | (G6 FE D4) B,4 | %54
w: Quo-|rum do- ctri-|na ful- get Ec-|cle\- * * * * * *|* * * si-|a, * * * do-|
 C8 D4 G4- | G4 E4 F4 (G4- | G2 F2 E2 D2 C4 c4- | c4) (B2 A2) B4 (A4- | A2 G2 G8 ^F4) | %59
w: ctri- na ful\-|* get Ec- cle\-||* si\- * a, *||
 z4 G4 G4 G4 | A8 G8 | z4 G4 E4 F4 | (G2 F2 E2 D2 C4 c4- | c4) (B2 A2) G8 | z8 C8 | G12 F4 | %66
w: quo- rum do-|ctri- na|ful- get Ec-|cle\- * * * * *|* si\- * a,|ut|so- le|
 E8 D8- | D16 | A,8 D8- | D4 C4 (F8 | E6 DC) D8 | z4 C4 G8- | G4 F4 (E2 F2 G2 A2 | %73
w: lu- na,||ut so\-|* le lu\-|* * * na,|ut so\-|* le lu\- * * *|
 B2 c2 B6 G2 A4- | A2 G2 G8 F4) | E8 D8 | z8 G,8 | G12 F4 | E8 D8- | D8 z4 G,4 | D4 E8 (D4- | %81
w: ||* na,|ut|so- le|lu- na,|* ut|so- le lu\-|
 D2 C2 C8 B,4 | E16) | !fermata!D16 |] %84
w: ||na.|
V:3
 z16 | G16 | G8 G8 | c8 B4 (e4- | e2 d2 c2 B2 c4 B4 | A8) G4 (c4- | c2 d2 e2 d2 e2 ^f2 g4- | %7
w: |I-|sti sunt|vi- ri san\-||* cti, vi\-||
 g4) ^f4 (g4 e4) |[M:4/2][K:treble-8] d8 (g6 f2 | e4 d2 c2) d8 | e8 d4 (c4- | %11
w: * ri san\- *|cti, san\- *|* * * cti,|vi- ri san\-|
 c2 B2 A2 G2 A2 B2 c4- | c4 B4) c8 | G4 (g8 ^f4) | g8 z8 | z16 | z4 c4 d4 f4- | f4 e4 d8- | %18
w: ||cti, san\- *|cti,||quos e- le\-|* git Do\-|
 d4 d4 c8 | z4 d4 e4 f4 | g8 f4 d4 | e8 c8 | z4 G4 A8 | B4 (c8 B4) | c4 B4 (A2 B2 c2 d2 | %25
w: * mi- nus|in cha- ri-|ta- te non|fi- cta,|in cha-|ri- ta\- *|te non fi\- * * *|
 e2 f2 g8 f4 | e4 d2 c2 d8 | G8) A4 d4- | d4 e4 f4 g4- | g2 f2 e4 d4 (e4- | e2 d2 c8 B4) | %31
w: ||* cta, in|* cha- ri- ta\-|* * * te non||
 (c4 A4 B4 c4- | c4 B2 A2) G8- | G8 z8 | z8 G8 | c8 d8 | e8 (d4 e4- | e4 d2 c2 d4) d4- | %38
w: fi\- * * *|* * * cta,||et|de- dit|il- lis *|* * * * glo\-|
 d2 d2 d4 e4 g4 | (f4 e4) d8 | z4 c4 e4 f4 | (g4 G2 A2 B2 c2 d2 B2 | c2 d2 e4 d4 c4) | %43
w: * ri- am sem- pi-|ter\- * nam,|et de- dit|il\- * * * * * *||
 (g6 f2 e2 d2 e4) | (f6 e2 d8) | z4 c6 c2 c4 | d4 f4 (e4 d4- | d2 c2 c8 B2 A2 | B8 c8) | G8 z8 | %50
w: |lis * *|glo- ri- am|sem- pi- ter\- *|||nam:|
 z16 | z4 d4 d4 d4 | e8 d8- | d8 g8 | e4 f4 (g6 f2) | (e2 d2 c2 B2 c4) d4 | e4 c4 e4 f4 | %57
w: |Quo- rum do-|ctri- na|* ful-|get Ec- cle\- *|* * * * * si-|a, ful- get Ec-|
 (e4 d6 c2 A4 | B4) c4 A4 d4 | d4 d4 e8 | c4 d4 B4 c4- | (c2 A2 B4) c4 d4 | G4 (c2 d2 e2 f2 g2 e2 | %63
w: cle\- * * *|* si- a, quo-|rum do- ctri-|na ful- get Ec\-|* * * cle- si-|a, ful\- * * * * *|
 f4) (g6 f2 e2 d2 | c8) A8 | B4 c4 A8 | z8 G8 | g12 f4 | e8 d4 d4 | f4 e4 (d4 c4- | %70
w: * get * * *|* Ec-|cle- si- a,|ut|so- le|lu- na, ut|so- le lu\- *|
 c2 B2 A4 G4 d4- | d2 c2 c8 B4) | c8 z4 c4 | g12 f4 | (e6 d2 c4 d4-) | (d2 c2 c8 B2 A2 | %76
w: ||na, ut|so- le|lu\- * * *||
 B2 G2 A4 B4) G4 | z4 G4 (d6 c2 | B4) c4 A8 | B4 G4 (d6 c2 | B4 c8) B4 | (e8 d8 | c16) | %83
w: * * * * na,|ut so\- *|* le lu-|na, ut so\- *|* * le|lu\- *||
 !fermata!B16 |] %84
w: na.|
V:4
 z16 | z16 | z16 | z16 | z16 | z16 | z16 | z16 |[M:4/2] G,16 | G,8 G,8 | C8 B,4 (A,4- | %11
w: ||||||||I-|sti sunt|vi- ri san\-|
 A,2 G,2 F,2 E,2 F,4 E,4 | D,8) C,4 C4- | C4 B,4 A,8 | G,8 z8 | z16 | z16 | z16 | G,8 A,4 C4- | %19
w: |* cti, vi\-|* ri san-|cti,||||quos e- le\-|
 C4 B,4 A,4 A,4 | G,4 G,4 A,4 B,4 | (C6 B,2 A,8) | G,4 E,4 F,8 | (E,6 F,2 G,8) | z16 | z8 D,8 | %26
w: * git Do- mi-|nus in cha- ri-|ta\- * *|te non fi-|cta, * *||quos|
 E,4 G,8 F,4 | E,4 E,4 D,8 | G,8 A,4 B,4 | C8 B,4 G,4 | A,8 G,8 | z16 | z16 | z16 | z16 | z16 | %36
w: e- le- git|Do- mi- nus|in cha- ri-|ta- te non|fi- cta,||||||
 C,8 G,8 | A,8 B,8 | G,4 G,6 G,2 G,4 | (A,4 C8) B,4 | (C6 B,2 A,8) | G,16 | z16 | z8 C,8 | %44
w: et de-|dit il-|lis glo- ri- am|sem\- * pi-|ter\- * *|num,||et|
 F,8 G,8 | A,8 F,4 F,4- | F,2 F,2 F,4 G,4 _B,4 | (A,8 G,8- | G,8) C,8 | z16 | z16 | z16 | z16 | %53
w: de- dit|il- lis glo\-|* ri- am sem- pi-|ter\- *|* nam:|||||
 G,8 G,4 G,4 | A,8 G,8 | C8 A,4 B,4 | (C6 B,2 A,2 G,2 F,4 | G,6 F,2 D,4 F,4 | E,4 C,4) D,8 | %59
w: Quo- rum do-|ctri- na|ful- get Ec-|cle\- * * * *||* * si-|
 G,8 z8 | z16 | z16 | z8 z4 C4 | A,4 B,4 (C6 B,2 | A,2 G,2 A,6 G,2 F,4 | E,4 C,4) D,8 | A,8 z8 | %67
w: a,|||ful-|get Ec- cle\- *||* * si-|a,|
 G,8 D8- | D4 C4 B,8 | A,8 (D,2 E,2 F,2 G,2 | A,2 B,2 C8) B,4 | (A,8 G,6 F,2 | E,4 F,4) C,8 | z16 | %74
w: ut so\-|* le lu-|na, so\- * * *|* * * le|lu\- * *|* * na,||
 z16 | C,8 G,8- | G,4 F,4 (E,8- | E,8 D,8 | E,4 C,4 D,8) | G,16 | z4 C,4 (G,6 F,2 | E,4) C,4 (G,8 | %82
w: |ut so\-|* le lu\-|||na,|ut so\- *|* le lu\-|
 C,16) | G,16 |] %84
w: |na.|

